icons/numix/16x16/status/krb-expiring-ticket.svg

<?xml version="1.0" encoding="UTF-8" standalone="no"?>
<svg
   xmlns:dc="http://purl.org/dc/elements/1.1/"
   xmlns:cc="http://creativecommons.org/ns#"
   xmlns:rdf="http://www.w3.org/1999/02/22-rdf-syntax-ns#"
   xmlns:svg="http://www.w3.org/2000/svg"
   xmlns="http://www.w3.org/2000/svg"
   xmlns:sodipodi="http://sodipodi.sourceforge.net/DTD/sodipodi-0.dtd"
   xmlns:inkscape="http://www.inkscape.org/namespaces/inkscape"
   width="10.182"
   height="16"
   viewBox="0 0 10.182 16"
   id="svg2"
   version="1.1"
   inkscape:version="0.91 r"
   sodipodi:docname="gtk-dialog-authentication-panel.svg">
  <metadata
     id="metadata30">
    <rdf:RDF>
      <cc:Work
         rdf:about="">
        <dc:format>image/svg+xml</dc:format>
        <dc:type
           rdf:resource="http://purl.org/dc/dcmitype/StillImage" />
        <dc:title></dc:title>
      </cc:Work>
    </rdf:RDF>
  </metadata>
  <sodipodi:namedview
     pagecolor="#ffffff"
     bordercolor="#666666"
     borderopacity="1"
     objecttolerance="10"
     gridtolerance="10"
     guidetolerance="10"
     inkscape:pageopacity="0"
     inkscape:pageshadow="2"
     inkscape:window-width="1366"
     inkscape:window-height="747"
     id="namedview28"
     showgrid="false"
     inkscape:zoom="20.85965"
     inkscape:cx="2.9968083"
     inkscape:cy="6.3286204"
     inkscape:window-x="0"
     inkscape:window-y="21"
     inkscape:window-maximized="1"
     inkscape:current-layer="svg2" />
  <defs
     id="defs4">
    <clipPath
       id="clip1">
      <rect
         width="16"
         height="16"
         id="rect7"
         x="0"
         y="0" />
    </clipPath>
    <filter
       width="1"
       x="0"
       y="0"
       height="1"
       filterUnits="objectBoundingBox"
       id="alpha">
      <feColorMatrix
         values="0 0 0 0 1 0 0 0 0 1 0 0 0 0 1 0 0 0 1 0"
         in="SourceGraphic"
         type="matrix"
         id="feColorMatrix10" />
    </filter>
    <g
       id="surface6"
       clip-path="url(#clip1)">
      <path
         style="fill:#000000;fill-opacity:0.30199998"
         d="M 8.027344,2.183594 C 5.375,2.167969 2.875,3.445312 2.386719,5.046875 1.894531,6.648438 3.226562,8.148438 5.707031,8.726562 l 0,4.363282 c 0,1.457031 1.292969,2.195312 2.285157,2.183594 0.996093,-0.01172 2.289062,-0.726563 2.289062,-2.183594 l 2.285156,-0.726563 -3.429687,-0.726562 3.429687,-1.453125 -2.285156,-0.730469 0,-0.726563 C 12.777344,8.175781 14.082031,6.71875 13.636719,5.113281 13.191406,3.507812 10.683594,2.195312 8.027344,2.183594 Z m 0,2.15625 c 0.671875,0 1.179687,0.324218 1.179687,0.75 0,0.425781 -0.511719,0.75 -1.179687,0.75 -0.664063,0 -1.175782,-0.324219 -1.175782,-0.75 0,-0.425782 0.507813,-0.75 1.175782,-0.75 z m 0,0.726562 c 0.027344,0 -0.035156,0.039063 -0.035156,0.023438 0,-0.015625 0.0625,0.023437 0.035156,0.023437 -0.023438,0 0.039062,-0.039062 0.039062,-0.023437 0,0.015625 -0.0625,-0.023438 -0.039062,-0.023438 z"
         id="path13"
         inkscape:connector-curvature="0" />
      <path
         style="fill:#dcdcdc"
         d="M 8.027344,1.453125 C 5.375,1.441406 2.875,2.714844 2.386719,4.316406 1.894531,5.921875 3.226562,7.421875 5.707031,8 l 0,4.363281 c 0,1.453125 1.292969,2.195313 2.285157,2.183594 0.996093,-0.01172 2.289062,-0.730469 2.289062,-2.183594 L 12.566406,11.636719 9.136719,10.910156 12.566406,9.453125 10.28125,8.726562 10.28125,8 C 12.777344,7.449219 14.082031,5.992188 13.636719,4.386719 13.191406,2.78125 10.683594,1.46875 8.027344,1.453125 Z m 0,2.160156 c 0.671875,0 1.179687,0.324219 1.179687,0.75 0,0.425781 -0.511719,0.75 -1.179687,0.75 -0.664063,0 -1.175782,-0.324219 -1.175782,-0.75 0,-0.425781 0.511719,-0.75 1.175782,-0.75 z m 0,0.726563 c 0.027344,0 -0.035156,0.039062 -0.035156,0.023437 0,-0.015625 0.0625,0.023438 0.039062,0.023438 -0.027344,0 0.035156,-0.039063 0.035156,-0.023438 0,0.015625 -0.0625,-0.023437 -0.035156,-0.023437 z"
         id="path15"
         inkscape:connector-curvature="0" />
    </g>
    <mask
       id="mask0">
      <g
         style="filter:url(#alpha)"
         id="g18">
        <rect
           width="16"
           x="0"
           y="0"
           height="16"
           style="fill:#000000;fill-opacity:0.30199998"
           id="rect20" />
      </g>
    </mask>
  </defs>
  <path
     inkscape:connector-curvature="0"
     id="path2999"
     d="m 5.1067579,1.4546193 c -1.689287,-0.014327 -3.278793,1.2618015 -3.590644,2.8635985 -0.311923,1.6017971 0.533739,3.1035953 2.113572,3.6817693 l 0,4.3635799 c 0,1.454526 0.82188,2.193789 1.454526,2.181789 0.632661,-0.01201 1.454527,-0.727263 1.454527,-2.181789 L 7.9932651,11.636303 5.8114759,10.90904 7.9932651,9.4545141 6.5387389,8.7272501 l 0,-0.727263 C 8.1285361,7.4487221 8.9576161,5.9932503 8.675438,4.3863624 8.3925326,2.7795472 6.7961899,1.4689463 5.1067579,1.4546193 Z m 0,2.1590987 c 0.425267,0 0.749954,0.324723 0.749954,0.7499538 0,0.4252671 -0.324723,0.7499537 -0.749954,0.7499537 -0.424722,0 -0.749809,-0.324723 -0.749809,-0.7499537 0,-0.4252308 0.325087,-0.7499538 0.749809,-0.7499538 z m 0,0.7272632 c 0.016,0 -0.02255,0.038545 -0.02255,0.022691 0,-0.015869 0.0386,0.022727 0.02273,0.022727 -0.01587,0 0.02273,-0.038596 0.02273,-0.022727 0,0.015869 -0.0386,-0.022727 -0.02273,-0.022727 z"
     style="color:#000000;opacity:1;fill:#ef555c;fill-opacity:1" />
</svg>

<svg width="16" xmlns="http://www.w3.org/2000/svg" height="16" viewBox="0 0 16 16" xmlns:xlink="http://www.w3.org/1999/xlink">
<path style="fill:#000;fill-opacity:.302" d="M 8.027344 2.183594 C 5.375 2.167969 2.875 3.445312 2.386719 5.046875 C 1.894531 6.648438 3.226562 8.148438 5.707031 8.726562 L 5.707031 13.089844 C 5.707031 14.546875 7 15.285156 7.992188 15.273438 C 8.988281 15.261719 10.277344 14.546875 10.277344 13.089844 L 12.566406 12.363281 L 9.136719 11.636719 L 12.566406 10.183594 L 10.277344 9.453125 L 10.277344 8.726562 C 12.777344 8.175781 14.082031 6.71875 13.636719 5.113281 C 13.191406 3.507812 10.683594 2.195312 8.027344 2.179688 Z M 8.027344 4.339844 C 8.699219 4.339844 9.207031 4.664062 9.207031 5.089844 C 9.207031 5.515625 8.699219 5.839844 8.027344 5.839844 C 7.359375 5.839844 6.851562 5.515625 6.851562 5.089844 C 6.851562 4.664062 7.359375 4.339844 8.027344 4.339844 Z M 8.027344 5.066406 C 8.054688 5.066406 7.992188 5.105469 7.992188 5.089844 C 7.992188 5.074219 8.054688 5.113281 8.027344 5.113281 C 8.003906 5.113281 8.066406 5.074219 8.066406 5.089844 C 8.066406 5.105469 8.003906 5.066406 8.027344 5.066406 Z "/>
<path style="fill:#de372c" d="M 8.027344 1.453125 C 5.375 1.441406 2.875 2.714844 2.386719 4.316406 C 1.894531 5.921875 3.226562 7.421875 5.707031 8 L 5.707031 12.363281 C 5.707031 13.816406 7 14.558594 7.992188 14.546875 C 8.988281 14.535156 10.28125 13.816406 10.28125 12.363281 L 12.566406 11.636719 L 9.136719 10.910156 L 12.566406 9.453125 L 10.28125 8.726562 L 10.28125 8 C 12.777344 7.449219 14.082031 5.992188 13.636719 4.386719 C 13.191406 2.78125 10.683594 1.46875 8.027344 1.453125 Z M 8.027344 3.613281 C 8.699219 3.613281 9.207031 3.9375 9.207031 4.363281 C 9.207031 4.789062 8.699219 5.113281 8.027344 5.113281 C 7.359375 5.113281 6.851562 4.789062 6.851562 4.363281 C 6.851562 3.9375 7.359375 3.613281 8.027344 3.613281 Z M 8.027344 4.339844 C 8.054688 4.339844 7.992188 4.378906 7.992188 4.363281 C 7.992188 4.347656 8.054688 4.386719 8.027344 4.386719 C 8.003906 4.386719 8.066406 4.347656 8.066406 4.363281 C 8.066406 4.378906 8.003906 4.339844 8.027344 4.339844 Z "/>
</svg>
